X:5
T:Coolea Slide No. 1
M:12/8
R:Slide
S:phelan-1/11
L:1/8
K:D
    dcd e2d c2E EFG | ~B3 BAG F2D DFA  |
    dcd e2d c2E EFG | ABA GFE D3  DFA ||
    F2A d3  c2B G3  | ABA GFE B2A F3   |
    F2A d3  c2B G3  | FEF ABc d3  d2  ||
A | ded d2e f2d A3  | fgf fed cBc ecA  |
    ded d2e f2d A3  | FEF ABc d3  d2  ||
f | a2f f2d Adf agf | g2e e2c ABc def  |
    a2f f2d Adf agf | gfe ABc d3  d3   |]

